icons/linear-new-people-minus-remove.svg

<svg xmlns="http://www.w3.org/2000/svg" width="32px" height="32px" viewBox="0 0 32 32" version="1.1">
    <title>linear-new-people-minus-remove</title>
    <g id="linear-new-people-minus-remove" stroke-width="1" fill-rule="evenodd">
        <path d="M23,16 C26.8659932,16 30,19.1340068 30,23 C30,26.8659932 26.8659932,30 23,30 C19.1340068,30 16,26.8659932 16,23 C16,19.1340068 19.1340068,16 23,16 Z M15.5162589,17.9989396 C15.1028422,18.616363 14.7638058,19.2877953 14.5119702,20.0004159 L9,20 C7.34314575,20 6,21.3431458 6,23 L6,28 C6,28.5522847 5.55228475,29 5,29 C4.44771525,29 4,28.5522847 4,28 L4,23 C4,20.2385763 6.23857625,18 9,18 L15.5162589,17.9989396 Z M23,18 C20.2385763,18 18,20.2385763 18,23 C18,25.7614237 20.2385763,28 23,28 C25.7614237,28 28,25.7614237 28,23 C28,20.2385763 25.7614237,18 23,18 Z M25.5,22 C26.0522847,22 26.5,22.4477153 26.5,23 C26.5,23.5522847 26.0522847,24 25.5,24 L20.5,24 C19.9477153,24 19.5,23.5522847 19.5,23 C19.5,22.4477153 19.9477153,22 20.5,22 L25.5,22 Z M16,2 C19.5898509,2 22.5,4.91014913 22.5,8.5 C22.5,12.0898509 19.5898509,15 16,15 C12.4101491,15 9.5,12.0898509 9.5,8.5 C9.5,4.91014913 12.4101491,2 16,2 Z M16,4 C13.5147186,4 11.5,6.01471863 11.5,8.5 C11.5,10.9852814 13.5147186,13 16,13 C18.4852814,13 20.5,10.9852814 20.5,8.5 C20.5,6.01471863 18.4852814,4 16,4 Z" id="&#24418;&#29366;" fill-rule="nonzero" />
    </g>
</svg>

<svg xmlns="http://www.w3.org/2000/svg" viewBox="0 0 32 32"><path fill="currentColor" d="M23 16a7 7 0 1 1 0 14 7 7 0 0 1 0-14m-7.484 1.999A8.968 8.968 0 0 0 14.512 20H9a3 3 0 0 0-3 3v5a1 1 0 0 1-2 0v-5a5 5 0 0 1 5-5zM23 18a5 5 0 1 0 0 10 5 5 0 0 0 0-10m2.5 4a1 1 0 0 1 0 2h-5a1 1 0 0 1 0-2zM16 2a6.5 6.5 0 1 1 0 13 6.5 6.5 0 0 1 0-13m0 2a4.5 4.5 0 1 0 0 9 4.5 4.5 0 0 0 0-9"/></svg>
